storage/app/icons/tabler/filled/file-function.svg

<!--
unicode: "1016d"
version: "3.33"
-->
<svg
  xmlns="http://www.w3.org/2000/svg"
  width="24"
  height="24"
  viewBox="0 0 24 24"
  fill="currentColor"
>
  <path d="M12 2l.117 .007a1 1 0 0 1 .876 .876l.007 .117v4l.005 .15a2 2 0 0 0 1.838 1.844l.157 .006h4l.117 .007a1 1 0 0 1 .876 .876l.007 .117v9a3 3 0 0 1 -2.824 2.995l-.176 .005h-10a3 3 0 0 1 -2.995 -2.824l-.005 -.176v-14a3 3 0 0 1 2.824 -2.995l.176 -.005zm1.5 9h-.333l-.16 .006c-.895 .07 -1.65 .732 -1.75 1.63l-.152 1.364h-.605a1 1 0 0 0 0 2h.382l-.111 1h-.271a1 1 0 0 0 0 2h.333l.16 -.006c.896 -.071 1.652 -.733 1.75 -1.632l.151 -1.362h.606a1 1 0 0 0 0 -2h-.383l.111 -1h.272a1 1 0 0 0 0 -2" />
  <path d="M19 7h-4l-.001 -4.001z" />
</svg>

<svg xmlns="http://www.w3.org/2000/svg" width="24" height="24" fill="currentColor" viewBox="0 0 24 24"><path d="m12 2 .117.007a1 1 0 0 1 .876.876L13 3v4l.005.15a2 2 0 0 0 1.838 1.844L15 9h4l.117.007a1 1 0 0 1 .876.876L20 10v9a3 3 0 0 1-2.824 2.995L17 22H7a3 3 0 0 1-2.995-2.824L4 19V5a3 3 0 0 1 2.824-2.995L7 2zm1.5 9h-.333l-.16.006c-.895.07-1.65.732-1.75 1.63L11.105 14H10.5a1 1 0 0 0 0 2h.382l-.111 1H10.5a1 1 0 0 0 0 2h.333l.16-.006c.896-.071 1.652-.733 1.75-1.632L12.894 16h.606a1 1 0 0 0 0-2h-.383l.111-1h.272a1 1 0 0 0 0-2"/><path d="M19 7h-4l-.001-4.001z"/></svg>
